dist/svgs/org-atom.svg

<svg xmlns="http://www.w3.org/2000/svg" viewBox="0 0 512 512"><path d="M419 256q14 13 28 29t24 33 12.5 34-6.5 32q-8 14-23.5 20t-37.5 6q-34 0-79-14-4 19-11 39.5T309.5 473t-23 28-30.5 11q-29 0-49.5-32.5T175 397q-19 5-39.5 9.5T96 411q-20 0-36.5-6T35 384q-15-26 2.5-59.5T93 256q-14-13-28-29t-24-33-12.5-34 6.5-32q4-7 11-13.5t20-10 31.5-4T142 106l33 9q4-19 11-39t16.5-37 23-28T256 0q29 0 49.5 32t31.5 83q19-6 40-10t40.5-4 35.5 6 24 21q15 25-2.5 59T419 256zm25-109q-3-6-27-8t-73 14q4 25 6 51t2 52v5q54-40 76-72t16-42zM256 38q-7 0-20.5 20T211 128q23 9 46.5 20t46.5 25q2 1 2.5 1.5t2.5 1.5q-8-67-25-102.5T256 38zm51 218q0-21-15-36t-36-15-36 15-15 36 15 36 36 15 36-15 15-36zM68 364q3 6 27 8t73-14q-4-24-6-50t-2-52v-6q-54 41-76 72.5T68 364zm55-133q41-33 85-58 2-1 2.5-1.5t2.5-1.5q-43-19-79-26-34-8-49-4.5T68 147q-4 6 6.5 27.5T123 231zm133 242q7 0 20.5-19.5T301 384q-23-9-46.5-20.5T208 339q-2-1-2.5-1.5T203 336q8 67 25 102t28 35zm188-109q4-5-6.5-26.5T389 281q-20 16-41 30t-44 28q-4 2-5 2 62 27 101 30.5t44-7.5z"/></svg>

<?xml version="1.0" encoding="UTF-8" standalone="no"?><svg   xmlns:svg="http://www.w3.org/2000/svg"   xmlns="http://www.w3.org/2000/svg"   version="1.1"   width="512"   height="512"   viewBox="0 0 512 512">  <path     d="M419 256Q433 269 447 285T471 318T483.5 352T477 384Q469 398 453.5 404T416 410Q382 410 337 396Q333 415 326 435.5T309.5 473T286.5 501T256 512Q227 512 206.5 479.5T175 397Q156 402 135.5 406.5T96 411Q76 411 59.5 405T35 384Q20 358 37.5 324.5T93 256Q79 243 65 227T41 194T28.5 160T35 128Q39 121 46 114.5T66 104.5T97.5 100.5T142 106L175 115Q179 96 186 76T202.5 39T225.5 11T256 0Q285 0 305.5 32T337 115Q356 109 377 105T417.5 101T453 107T477 128Q492 153 474.5 187T419 256zM444 147Q441 141 417 139T344 153Q348 178 350 204T352 256V261Q406 221 428 189T444 147zM256 38Q249 38 235.5 58T211 128Q234 137 257.5 148T304 173Q306 174 306.5 174.5T309 176Q301 109 284 73.5T256 38zM307 256Q307 235 292 220T256 205T220 220T205 256T220 292T256 307T292 292T307 256zM68 364Q71 370 95 372T168 358Q164 334 162 308T160 256V250Q106 291 84 322.5T68 364zM123 231Q164 198 208 173Q210 172 210.5 171.5T213 170Q170 151 134 144Q100 136 85 139.5T68 147Q64 153 74.5 174.5T123 231zM256 473Q263 473 276.5 453.5T301 384Q278 375 254.5 363.5T208 339Q206 338 205.5 337.5T203 336Q211 403 228 438T256 473zM444 364Q448 359 437.5 337.5T389 281Q369 297 348 311T304 339Q300 341 299 341Q361 368 400 371.5T444 364z"     id="org-atom" /></svg>
